!!!COM: Music21
!!!OTL: mazurka_Nikitas-Hackbrett
!!!OMV: mazurka_Nikitas-Hackbrett
**kern
*clefG2
*k[f#c#]
*D:
*M3/4
=1
8.aL
16f#Jk
=
8.dL
16f#Jk
4a
4dd
=
4cc#
4a
4a
=
8.aL
16cc#Jk
4ee
4gg
=
4ff#
4dd
8.aL
16f#Jk
=
8.dL
16f#Jk
8.aL
16ddJk
8.f#L
16ddJk
=
4cc#
8.aL
16g#XJk
4a
!!linebreak:original
=
8.aL
16cc#Jk
8.eeL
16aJk
8.cc#L
16eeJk
=
4dd
4d
4ryy
=||
*M3/4
8.aL
16f#Jk
=
8.dL
16f#Jk
4a
4dd
=
4cc#
4a
4a
=
8.aL
16cc#Jk
4ee
4gg
=
4ff#
4dd
8.aL
16f#Jk
!!linebreak:original
=
8.dL
16f#Jk
8.aL
16ddJk
8.f#L
16ddJk
=
4cc#
8.aL
16g#XJk
4a
=
8.aL
16cc#Jk
8.eeL
16aJk
8.cc#L
16eeJk
=
4dd
4d
4ryy
=||
8.ff#L
16ggJk
2ryy
=
8.aaL
16ff#Jk
4dd
4a
=
4cc#
4b
4b
!!linebreak:original
=
8.aL
16cc#Jk
4ee
4gg
=
8.ff#L
16aJk
8.ddL
16aJk
12eeL
12ff#
12ggJ
=
8.aaL
16aJk
8.ddL
16aJk
12f#L
12g
12aJ
=
4cc#
8.bL
16a#XJk
4b
=
8.aL
16cc#Jk
8.eeL
16aJk
8.cc#L
16eeJk
=
4dd
4d
4ryy
=||
8.ff#L
16ggJk
2ryy
!!linebreak:original
=
8.aaL
16ff#Jk
4dd
4a
=
4cc#
4b
4b
=
8.aL
16cc#Jk
4ee
4gg
=
8.ff#L
16aJk
8.ddL
16aJk
12eeL
12ff#
12ggJ
=
8.aaL
16aJk
8.ddL
16aJk
12f#L
12g
12aJ
=
4cc#
8.bL
16a#XJk
4b
=
8.aL
16cc#Jk
8.eeL
16aJk
8.cc#L
16eeJk
!!linebreak:original
=
4dd
4d
4ryy
=||
*-
